public/icons/AiScript-Light.svg

<svg xmlns="http://www.w3.org/2000/svg" width="256" height="256" fill="none" viewBox="0 0 256 256"><rect width="256" height="256" fill="#F4F2ED" rx="60"/><path fill="url(#paint0_linear_161_1041)" d="M115.503 36.0758C113.25 31.5158 108.397 29 103.372 29C98.5193 29 93.667 31.5158 91.5874 36.0758L48.7829 122.558C45.8368 128.376 48.7829 135.451 55.3682 137.967C57.1012 138.753 58.8342 139.068 60.5671 139.068C65.5928 139.068 70.2718 136.552 72.5247 132.149L78.4168 120.199H128.673L134.565 132.149C136.645 136.552 141.497 139.068 146.349 139.068C148.082 139.068 149.989 138.753 151.722 137.967C158.134 135.451 161.08 128.376 158.134 122.558L115.503 36.0758ZM118.449 99.4434H88.6414L103.372 69.0961L118.449 99.4434Z"/><path fill="url(#paint1_linear_161_1041)" d="M195.046 44.4096C195.046 50.6992 189.501 55.7309 182.569 55.7309C175.637 55.7309 169.918 50.6992 169.918 44.4096C169.918 38.2773 175.637 33.2456 182.569 33.2456C189.501 33.2456 195.046 38.2773 195.046 44.4096ZM182.569 139.068C174.944 139.068 168.878 133.407 168.878 126.646V72.87C168.878 66.1087 174.944 60.4481 182.569 60.4481C190.021 60.4481 196.086 66.1087 196.086 72.87V126.646C196.086 133.407 190.021 139.068 182.569 139.068Z"/><path fill="url(#paint2_linear_161_1041)" d="M35.9617 213.097C31.332 213.097 25.7764 211.444 22.0726 208.965C18.9244 206.852 17.9985 202.628 20.2207 199.506C22.3504 196.384 26.6097 195.557 29.7579 197.669C34.0172 200.516 42.0729 199.873 42.721 193.629C42.9988 191.516 41.9803 189.312 40.3136 188.119C38.2765 186.649 35.4061 186.557 33.1839 185.547C30.4986 184.537 27.9986 182.884 25.9615 180.864C22.1652 177.374 20.0356 172.874 19.8504 168.374C19.8504 165.803 20.3133 163.324 21.2393 160.844C22.1652 158.64 23.5541 156.62 25.2208 154.783C26.9801 153.038 28.9245 151.661 31.0542 150.651C33.4616 149.549 35.8691 148.906 38.3691 148.722C41.7951 148.63 46.8877 149.365 50.5915 151.569C53.9248 153.589 54.9434 157.722 53.0915 161.028C51.0544 164.242 46.8877 165.252 43.6469 163.324C41.3321 162.038 37.9987 162.038 35.8691 163.691C34.6654 164.609 33.832 166.17 33.832 167.64C33.6468 173.058 40.5913 173.15 44.2025 174.619C46.9803 175.813 49.5729 177.558 51.61 179.854C54.7582 183.343 56.6101 187.751 56.7027 192.527C56.8878 197.945 54.8508 202.995 50.9618 206.852C47.3507 210.526 42.3506 212.73 37.1654 213.005C36.795 213.005 36.332 213.097 35.9617 213.097Z"/><path fill="url(#paint3_linear_161_1041)" d="M84.4807 213.005C81.3325 213.005 78.2769 212.454 75.4991 211.261C72.7213 210.067 70.2213 208.414 68.0916 206.302C65.962 204.189 64.2953 201.71 63.0916 199.047C61.9804 196.2 61.3323 193.169 61.3323 190.047C61.3323 187.017 61.9804 183.986 63.0916 181.047C64.2953 178.384 65.962 175.997 68.0916 173.793C70.2213 171.681 72.7213 170.119 75.4991 168.926C78.2769 167.64 81.3325 167.089 84.4807 167.089C87.0733 167.089 89.5733 167.548 92.0734 168.375C94.4808 169.109 96.6105 170.303 98.5549 171.864C101.703 174.252 102.351 178.752 99.9438 181.966C98.4623 183.802 96.3327 184.813 94.1104 184.813C92.6289 184.813 91.0548 184.262 89.6659 183.251C88.1844 182.058 86.4252 181.507 84.4807 181.507C79.6658 181.507 75.8695 185.364 75.8695 190.047C75.8695 194.822 79.6658 198.588 84.4807 198.588C86.4252 198.588 88.1844 198.037 89.6659 196.843C92.9067 194.455 97.4438 195.006 99.8512 198.22C102.351 201.343 101.703 205.934 98.5549 208.322C94.5734 211.444 89.5734 213.005 84.4807 213.005Z"/><path fill="url(#paint4_linear_161_1041)" d="M126.796 167.181C126.518 167.089 126.148 167.089 125.777 167.089C122.629 167.089 119.481 167.824 116.703 169.201C115.592 167.915 113.833 167.181 111.981 167.181C108.462 167.181 105.592 170.028 105.592 173.517V205.751C105.592 209.791 108.833 213.005 112.814 213.005C116.888 213.005 120.129 209.791 120.129 205.751V187.2C120.129 184.078 122.722 181.598 125.777 181.598H126.426C130.315 181.598 133.555 178.568 133.741 174.711C133.926 170.67 130.778 167.364 126.796 167.181V167.181Z"/><path fill="url(#paint5_linear_161_1041)" d="M153.278 157.722C153.278 161.395 150.315 164.334 146.611 164.334C142.908 164.334 139.852 161.395 139.852 157.722C139.852 154.14 142.908 151.202 146.611 151.202C150.315 151.202 153.278 154.14 153.278 157.722ZM146.611 213.005C142.537 213.005 139.296 209.699 139.296 205.75V174.344C139.296 170.395 142.537 167.089 146.611 167.089C150.593 167.089 153.834 170.395 153.834 174.344V205.75C153.834 209.699 150.593 213.005 146.611 213.005Z"/><path fill="url(#paint6_linear_161_1041)" d="M183.556 166.905C179.482 166.905 175.593 168.007 172.167 169.844C171.056 168.007 169.019 166.905 166.704 166.905C163.185 166.905 160.315 169.66 160.315 173.242V220.26C160.315 224.209 163.648 227.515 167.722 227.515C171.704 227.515 175.037 224.209 175.037 220.26V211.352C177.63 212.454 180.593 213.005 183.556 213.005C196.426 213.005 206.797 202.72 206.797 189.955C206.797 177.19 196.426 166.905 183.556 166.905ZM189.667 196.016C188 197.669 185.871 198.496 183.556 198.496C181.241 198.496 179.111 197.669 177.445 196.016C175.778 194.455 174.852 192.251 174.852 189.955C174.852 187.659 175.778 185.455 177.445 183.802C179.111 182.241 181.241 181.323 183.556 181.323C185.871 181.323 188 182.241 189.667 183.802C191.334 185.455 192.26 187.659 192.26 189.955C192.26 192.251 191.334 194.455 189.667 196.016Z"/><path fill="url(#paint7_linear_161_1041)" d="M230.223 198.587C227.631 198.587 225.501 196.475 225.501 193.904V179.854H231.057C234.575 179.854 237.446 177.007 237.446 173.517C237.446 169.936 234.575 167.089 231.057 167.089H225.501V159.65C225.501 155.701 222.26 152.487 218.279 152.487C214.205 152.487 210.964 155.701 210.964 159.65V193.904C210.964 199.047 213.001 203.822 216.612 207.495C220.223 210.985 225.038 213.005 230.223 213.005C234.205 213.005 237.446 209.791 237.446 205.75C237.446 201.802 234.205 198.587 230.223 198.587V198.587Z"/><defs><linearGradient id="paint0_linear_161_1041" x1="47.64" x2="617.892" y1="96.449" y2="96.449" gradientUnits="userSpaceOnUse"><stop stop-color="#82E97A"/><stop offset="1" stop-color="#21DEBB"/></linearGradient><linearGradient id="paint1_linear_161_1041" x1="47.64" x2="617.892" y1="96.45" y2="96.45" gradientUnits="userSpaceOnUse"><stop stop-color="#82E97A"/><stop offset="1" stop-color="#21DEBB"/></linearGradient><linearGradient id="paint2_linear_161_1041" x1="-67.243" x2="237.445" y1="188.115" y2="188.115" gradientUnits="userSpaceOnUse"><stop stop-color="#82E97A"/><stop offset="1" stop-color="#21DEBB"/></linearGradient><linearGradient id="paint3_linear_161_1041" x1="-67.242" x2="237.445" y1="188.115" y2="188.115" gradientUnits="userSpaceOnUse"><stop stop-color="#82E97A"/><stop offset="1" stop-color="#21DEBB"/></linearGradient><linearGradient id="paint4_linear_161_1041" x1="-67.242" x2="237.445" y1="188.115" y2="188.115" gradientUnits="userSpaceOnUse"><stop stop-color="#82E97A"/><stop offset="1" stop-color="#21DEBB"/></linearGradient><linearGradient id="paint5_linear_161_1041" x1="-67.242" x2="237.446" y1="188.115" y2="188.115" gradientUnits="userSpaceOnUse"><stop stop-color="#82E97A"/><stop offset="1" stop-color="#21DEBB"/></linearGradient><linearGradient id="paint6_linear_161_1041" x1="-67.242" x2="237.445" y1="188.115" y2="188.115" gradientUnits="userSpaceOnUse"><stop stop-color="#82E97A"/><stop offset="1" stop-color="#21DEBB"/></linearGradient><linearGradient id="paint7_linear_161_1041" x1="-67.242" x2="237.446" y1="188.115" y2="188.115" gradientUnits="userSpaceOnUse"><stop stop-color="#82E97A"/><stop offset="1" stop-color="#21DEBB"/></linearGradient></defs></svg>

<svg xmlns="http://www.w3.org/2000/svg" width="256" height="256" fill="none"><rect width="256" height="256" fill="#F4F2ED" rx="60"/><path fill="url(#a)" d="M115.503 36.076C113.25 31.516 108.397 29 103.372 29c-4.853 0-9.705 2.516-11.785 7.076l-42.804 86.482c-2.946 5.818 0 12.893 6.585 15.409 1.733.786 3.466 1.101 5.2 1.101 5.025 0 9.704-2.516 11.957-6.919l5.892-11.95h50.256l5.892 11.95c2.08 4.403 6.932 6.919 11.784 6.919 1.733 0 3.64-.315 5.373-1.101 6.412-2.516 9.358-9.591 6.412-15.409zm2.946 63.367H88.641l14.731-30.347z"/><path fill="url(#b)" d="M195.046 44.41c0 6.29-5.545 11.32-12.477 11.32s-12.651-5.03-12.651-11.32c0-6.133 5.719-11.164 12.651-11.164s12.477 5.031 12.477 11.164m-12.477 94.658c-7.625 0-13.691-5.661-13.691-12.422V72.87c0-6.761 6.066-12.422 13.691-12.422 7.452 0 13.517 5.66 13.517 12.422v53.776c0 6.761-6.065 12.422-13.517 12.422"/><path fill="url(#c)" d="M35.962 213.097c-4.63 0-10.186-1.653-13.89-4.132-3.148-2.113-4.073-6.337-1.851-9.459a6.897 6.897 0 0 1 9.537-1.837c4.26 2.847 12.315 2.204 12.963-4.04.278-2.113-.74-4.317-2.407-5.51-2.038-1.47-4.908-1.562-7.13-2.572-2.685-1.01-5.185-2.663-7.222-4.683-3.797-3.49-5.926-7.99-6.112-12.49 0-2.571.463-5.05 1.39-7.53.925-2.204 2.314-4.224 3.98-6.061q2.64-2.617 5.834-4.132c2.408-1.102 4.815-1.745 7.315-1.929 3.426-.092 8.519.643 12.223 2.847 3.333 2.02 4.351 6.153 2.5 9.459-2.038 3.214-6.204 4.224-9.445 2.296-2.315-1.286-5.648-1.286-7.778.367-1.204.918-2.037 2.479-2.037 3.949-.185 5.418 6.76 5.51 10.37 6.979 2.778 1.194 5.37 2.939 7.408 5.235 3.148 3.489 5 7.897 5.093 12.673.185 5.418-1.852 10.468-5.741 14.325-3.611 3.674-8.611 5.878-13.797 6.153-.37 0-.833.092-1.203.092"/><path fill="url(#d)" d="M84.48 213.005c-3.148 0-6.203-.551-8.98-1.744-2.779-1.194-5.279-2.847-7.408-4.959-2.13-2.113-3.797-4.592-5-7.255-1.112-2.847-1.76-5.878-1.76-9 0-3.03.648-6.061 1.76-9 1.203-2.663 2.87-5.05 5-7.254 2.13-2.112 4.63-3.674 7.407-4.867 2.778-1.286 5.834-1.837 8.982-1.837 2.592 0 5.092.459 7.592 1.286 2.408.734 4.538 1.928 6.482 3.489 3.148 2.388 3.796 6.888 1.389 10.102-1.482 1.836-3.611 2.847-5.834 2.847-1.481 0-3.055-.551-4.444-1.562-1.482-1.193-3.24-1.744-5.185-1.744-4.815 0-8.611 3.857-8.611 8.54 0 4.775 3.796 8.541 8.61 8.541 1.945 0 3.704-.551 5.186-1.745 3.24-2.388 7.778-1.837 10.185 1.377 2.5 3.123 1.852 7.714-1.296 10.102-3.982 3.122-8.982 4.683-14.074 4.683"/><path fill="url(#e)" d="M126.796 167.181c-.278-.092-.648-.092-1.019-.092a20.6 20.6 0 0 0-9.074 2.112c-1.111-1.286-2.87-2.02-4.722-2.02-3.519 0-6.389 2.847-6.389 6.336v32.234a7.22 7.22 0 0 0 7.222 7.254c4.074 0 7.315-3.214 7.315-7.254V187.2c0-3.122 2.593-5.602 5.648-5.602h.649c3.889 0 7.129-3.03 7.315-6.887.185-4.041-2.963-7.347-6.945-7.53"/><path fill="url(#f)" d="M153.278 157.722c0 3.673-2.963 6.612-6.667 6.612s-6.759-2.939-6.759-6.612c0-3.582 3.056-6.52 6.759-6.52s6.667 2.938 6.667 6.52m-6.667 55.283c-4.074 0-7.315-3.306-7.315-7.255v-31.406c0-3.949 3.241-7.255 7.315-7.255 3.982 0 7.223 3.306 7.223 7.255v31.406c0 3.949-3.241 7.255-7.223 7.255"/><path fill="url(#g)" d="M183.556 166.905c-4.074 0-7.963 1.102-11.389 2.939-1.111-1.837-3.148-2.939-5.463-2.939-3.519 0-6.389 2.755-6.389 6.337v47.018c0 3.949 3.333 7.255 7.407 7.255 3.982 0 7.315-3.306 7.315-7.255v-8.908c2.593 1.102 5.556 1.653 8.519 1.653 12.87 0 23.241-10.285 23.241-23.05s-10.371-23.05-23.241-23.05m6.111 29.111c-1.667 1.653-3.796 2.48-6.111 2.48s-4.445-.827-6.111-2.48c-1.667-1.561-2.593-3.765-2.593-6.061s.926-4.5 2.593-6.153c1.666-1.561 3.796-2.479 6.111-2.479s4.444.918 6.111 2.479c1.667 1.653 2.593 3.857 2.593 6.153s-.926 4.5-2.593 6.061"/><path fill="url(#h)" d="M230.223 198.587c-2.592 0-4.722-2.112-4.722-4.683v-14.05h5.556c3.518 0 6.389-2.847 6.389-6.337 0-3.581-2.871-6.428-6.389-6.428h-5.556v-7.439c0-3.949-3.241-7.163-7.222-7.163-4.074 0-7.315 3.214-7.315 7.163v34.254c0 5.143 2.037 9.918 5.648 13.591a19.5 19.5 0 0 0 13.611 5.51 7.22 7.22 0 0 0 7.223-7.255c0-3.948-3.241-7.163-7.223-7.163"/><defs><linearGradient id="a" x1="47.64" x2="617.892" y1="96.449" y2="96.449" gradientUnits="userSpaceOnUse"><stop stop-color="#82E97A"/><stop offset="1" stop-color="#21DEBB"/></linearGradient><linearGradient id="b" x1="47.64" x2="617.892" y1="96.45" y2="96.45" gradientUnits="userSpaceOnUse"><stop stop-color="#82E97A"/><stop offset="1" stop-color="#21DEBB"/></linearGradient><linearGradient id="c" x1="-67.243" x2="237.445" y1="188.115" y2="188.115" gradientUnits="userSpaceOnUse"><stop stop-color="#82E97A"/><stop offset="1" stop-color="#21DEBB"/></linearGradient><linearGradient id="d" x1="-67.242" x2="237.445" y1="188.115" y2="188.115" gradientUnits="userSpaceOnUse"><stop stop-color="#82E97A"/><stop offset="1" stop-color="#21DEBB"/></linearGradient><linearGradient id="e" x1="-67.242" x2="237.445" y1="188.115" y2="188.115" gradientUnits="userSpaceOnUse"><stop stop-color="#82E97A"/><stop offset="1" stop-color="#21DEBB"/></linearGradient><linearGradient id="f" x1="-67.242" x2="237.446" y1="188.115" y2="188.115" gradientUnits="userSpaceOnUse"><stop stop-color="#82E97A"/><stop offset="1" stop-color="#21DEBB"/></linearGradient><linearGradient id="g" x1="-67.242" x2="237.445" y1="188.115" y2="188.115" gradientUnits="userSpaceOnUse"><stop stop-color="#82E97A"/><stop offset="1" stop-color="#21DEBB"/></linearGradient><linearGradient id="h" x1="-67.242" x2="237.446" y1="188.115" y2="188.115" gradientUnits="userSpaceOnUse"><stop stop-color="#82E97A"/><stop offset="1" stop-color="#21DEBB"/></linearGradient></defs></svg>
